X: 38514
T: Stella Splendens
R: polka
M: 2/4
K: Ddorian
(A A/G/)|A F|D F|(G2|_B/A/F/G/)|E D|F G|(G/F/) D|C2|
(A A/G/)|A F|D F|(G2|_B/A/F/G/)|E D|F G|(G/F/) (D/E/4C/4)|D2||
D D|A B|d (B|c/A/) G|B c|A (G/F/)|(F/E/) D|
D D|A B|d (B|c/A/) G|B c|A (G/F/)|(F/E/) D|
(A A/G/)|A F|D F|(G2|_B/A/F/G/)|E D|F G|(G/F/) D|C2|
(A A/G/)|A F|D F|(G2|_B/A/F/G/)|E D|F G|(G/F/) (D/E/4C/4)|D2||

